icons/outline/eye-dotted.svg

<!--
tags: [pattern, point, vision, sight, design, spot, view, particular, focus, look]
unicode: "fead"
version: "3.1"
-->
<svg
  xmlns="http://www.w3.org/2000/svg"
  width="24"
  height="24"
  viewBox="0 0 24 24"
  fill="none"
  stroke="currentColor"
  stroke-width="2"
  stroke-linecap="round"
  stroke-linejoin="round"
>
  <path d="M10 12a2 2 0 1 0 4 0a2 2 0 0 0 -4 0m11 0h.01m-18.01 0h.01m1.99 3h.01m-.01 -6h.01m13.99 6h.01m-7.01 3h.01m-.01 -12h.01m-4.01 11h.01m-.01 -10h.01m7.99 10h.01m-.01 -10h.01m2.99 2h.01" />
</svg>

<!--
tags: [pattern, point, vision, sight, design, spot, view, particular, focus, look]
unicode: "fead"
version: "3.1"
-->
<svg
  xmlns="http://www.w3.org/2000/svg"
  width="24"
  height="24"
  viewBox="0 0 24 24"
  fill="none"
  stroke="currentColor"
  stroke-width="2"
  stroke-linecap="round"
  stroke-linejoin="round"
>
    <path d="M10 12a2 2 0 1 0 4 0a2 2 0 0 0 -4 0M21 12h.01M3 12h.01M5 15h.01M5 9h.01M19 15h.01M12 18h.01M12 6h.01M8 17h.01M8 7h.01M16 17h.01M16 7h.01M19 9h.01" />
</svg>
